X: 53
T: Conserva me Domine
N: Derived from Mar2016-Conserva_me_domine.krn
C: Johannes Martini
%%abc-version 2.0
%%abcx-abcm2ps-target-version 5.9.1 (29 Sep 2008)
%%abc-creator hum2abc beta
%%abcx-conversion-date 2019/02/17 07:19:42
%%abc-edited-by Jesse Rodin
%%abc-edited-by Chris Gage 03-26-2014
%%abcx-initial-encoding-date 2014/06/15/
%%humdrum-veritas 1091418322
%%humdrum-veritas-data 1280403382
%%linebreak <none>
%%barnumbers 0
L: 1/4
M: 4/2
Q: 1/2=120
V: 1 clef=treble
V: 2 clef=treble-8
V: 3 clef=treble-8
K: F
[V:1] G2G2G2G2 | 
[V:2] d2d2d2d2 | 
[V:3] G2G2B2B2 | 
[V:1] G4G2G2 | 
[V:2] d4d2d2 | 
[V:3] B4B2B2 | 
[V:1] G2G4G2 | 
[V:2] d2d4d2 | 
[V:3] B2B4B2 | 
[V:1] G4z2G2 | 
[V:2] d4z2d2 | 
[V:3] B4B4 | 
[V:1] G4G4 | 
[V:2] d4d4 | 
[V:3] G4B4 | 
[V:1] G2G2G2G2 | 
[V:2] d2d2d2d2 | 
[V:3] B2B2B2B2 | 
[V:1] G4A4- | 
[V:2] d4e4- | 
[V:3] B4A3B | 
[V:1] A2G4F2- | 
[V:2] e2d4c2- | 
[V:3] c4B2A2 | 
[V:1] F2E2F4 ||  
[V:2] c2=B2c4 ||  
[V:3] G4F4 ||  
[V:1] G4G4 | 
[V:2] z8 | 
[V:3] G4B4 | 
[V:1] G4F2G2 | 
[V:2] z8 | 
[V:3] B4A2B2 | 
[V:1] A2B4A2- | 
[V:2] z8 | 
[V:3] c2d4c2 | 
[V:1] A2G2A4 | 
[V:2] z8 | 
[V:3] B4A4 | 
[V:1] z4G2G2 | 
[V:2] z8 | 
[V:3] z4B2B2 | 
[V:1] G2G2G4 | 
[V:2] z8 | 
[V:3] B2B2B4 | 
[V:1] G2G4G2 | 
[V:2] z8 | 
[V:3] B2B4B2 | 
[V:1] G2G2G4 | 
[V:2] z8 | 
[V:3] B2B2B4 | 
[V:1] A4A2G2- | 
[V:2] z8 | 
[V:3] c4c2B2- | 
[V:1] G2F4E2 | 
[V:2] z8 | 
[V:3] B2A2G4 | 
[V:1] F8 ||  
[V:2] z8 ||  
[V:3] F8 ||  
[V:1] G4G2G2 | 
[V:2] d4d2d2 | 
[V:3] G4B2B2 | 
[V:1] G2G2G4 | 
[V:2] d2d2d4 | 
[V:3] B2B2G4 | 
[V:1] G2G2G2G2 | 
[V:2] d2d2d2d2 | 
[V:3] B2B2B2B2 | 
[V:1] G4B4 | 
[V:2] d4f4 | 
[V:3] B4d4 | 
[V:1] A2A4G2 | 
[V:2] e2e4d2 | 
[V:3] c2A2B4 | 
[V:1] A4z4 | 
[V:2] e4z4 | 
[V:3] A4z4 | 
[V:1] G2G2G4 | 
[V:2] d2d2d4 | 
[V:3] B2B2B4 | 
[V:1] A6G2 | 
[V:2] e6d2 | 
[V:3] A4c2B2 | 
[V:1] F2G4F2- | 
[V:2] c2d4c2- | 
[V:3] A2B4A2 | 
[V:1] F2E2F4 ||  
[V:2] c2=B2c4 ||  
[V:3] G4F4 ||  
[V:1] G4G4 | 
[V:2] z8 | 
[V:3] G4B4 | 
[V:1] G2G2G4 | 
[V:2] z8 | 
[V:3] B2B2B4 | 
[V:1] G2G2G2G2 | 
[V:2] z8 | 
[V:3] B2B2B2B2 | 
[V:1] G4G2G2 | 
[V:2] z8 | 
[V:3] B4B2B2 | 
[V:1] G4B4 | 
[V:2] z8 | 
[V:3] B4d4 | 
[V:1] A2A4G2 | 
[V:2] z8 | 
[V:3] c2A2B4 | 
[V:1] A4z4 | 
[V:2] z8 | 
[V:3] A4z4 | 
[V:1] G2G2G2G2 | 
[V:2] z8 | 
[V:3] B2B2B2B2 | 
[V:1] G4z2G2 | 
[V:2] z8 | 
[V:3] B4B4 | 
[V:1] G2G2G2G2 | 
[V:2] z8 | 
[V:3] B2B2B2B2 | 
[V:1] G4G4 | 
[V:2] z8 | 
[V:3] B4B4 | 
[V:1] A4A2G2- | 
[V:2] z8 | 
[V:3] c4c2B2- | 
[V:1] G2F4E2 | 
[V:2] z8 | 
[V:3] B2A2G4 | 
[V:1] F8 ||  
[V:2] z8 ||  
[V:3] F8 ||  
[V:1] G4G2G2 | 
[V:2] d4d2d2 | 
[V:3] G4B2B2 | 
[V:1] G4G2G2 | 
[V:2] d4d2d2 | 
[V:3] B4B2B2 | 
[V:1] G2G2G4 | 
[V:2] d2d2d4 | 
[V:3] B2B2G4 | 
[V:1] G2F2G4 | 
[V:2] d2c2d4 | 
[V:3] B2A2B4 | 
[V:1] A2B4A2- | 
[V:2] e2f4e2- | 
[V:3] c2d4c2 | 
[V:1] A2G2A4 | 
[V:2] e2d2e4 | 
[V:3] B4A4 | 
[V:1] z4G4 | 
[V:2] z4d4 | 
[V:3] z4B4 | 
[V:1] G4G2G2 | 
[V:2] d4d2d2 | 
[V:3] B4B2B2 | 
[V:1] G2G2G4 | 
[V:2] d2d2d4 | 
[V:3] B2B2G4 | 
[V:1] G4G2G2 | 
[V:2] d4d2d2 | 
[V:3] B4B2B2 | 
[V:1] A4A2G2- | 
[V:2] e4e2d2- | 
[V:3] A4c4 | 
[V:1] G2F4E2 | 
[V:2] d2c4=B2 | 
[V:3] B2A2G4 | 
[V:1] F8 ||  
[V:2] c8 ||  
[V:3] F8 ||  
[V:1] G4G4 | 
[V:2] z8 | 
[V:3] G4B4 | 
[V:1] G4G2G2 | 
[V:2] z8 | 
[V:3] B4B2B2 | 
[V:1] G2G2G4 | 
[V:2] z8 | 
[V:3] B2B2B4 | 
[V:1] B4A2A2- | 
[V:2] z8 | 
[V:3] d4c2A2 | 
[V:1] A2G2A4 | 
[V:2] z8 | 
[V:3] B4A4 | 
[V:1] z4G2G2 | 
[V:2] z8 | 
[V:3] z4B2B2 | 
[V:1] G4G4 | 
[V:2] z8 | 
[V:3] B4B4 | 
[V:1] G2G2G2G2 | 
[V:2] z8 | 
[V:3] B2B2B2B2 | 
[V:1] G4G4 | 
[V:2] z8 | 
[V:3] B4B4 | 
[V:1] A4A2G2- | 
[V:2] z8 | 
[V:3] c4A2B2- | 
[V:1] G2F4E2 | 
[V:2] z8 | 
[V:3] B2A2G4 | 
[V:1] F8 ||  
[V:2] z8 ||  
[V:3] F8 ||  
[V:1] G4G4 | 
[V:2] d4d4 | 
[V:3] G4B4 | 
[V:1] G2G2G2G2 | 
[V:2] d2d2d2d2 | 
[V:3] B2B2B2B2 | 
[V:1] G4G4 | 
[V:2] d4d4 | 
[V:3] B4B4 | 
[V:1] G2G2G2G2 | 
[V:2] d2d2d2d2 | 
[V:3] B2B2B2B2 | 
[V:1] G4B4 | 
[V:2] d4f4 | 
[V:3] B4d4 | 
[V:1] A2A4G2 | 
[V:2] e2e4d2 | 
[V:3] c2A2B4 | 
[V:1] A4z4 | 
[V:2] e4z4 | 
[V:3] A4z4 | 
[V:1] G2G2G4 | 
[V:2] d2d2d4 | 
[V:3] B2B2B4 | 
[V:1] G4G2G2 | 
[V:2] d4d2d2 | 
[V:3] B4B2B2 | 
[V:1] G2G2G4 | 
[V:2] d2d2d4 | 
[V:3] B2B2G4 | 
[V:1] G2G2G2G2 | 
[V:2] d2d2d2d2 | 
[V:3] B2B2B2B2 | 
[V:1] G4A4- | 
[V:2] d4e4- | 
[V:3] B4c4- | 
[V:1] A2G2F2G2- | 
[V:2] e2d2c2d2- | 
[V:3] c2B2A2B2- | 
[V:1] G2F4E2 | 
[V:2] d2c4=B2 | 
[V:3] B2A2G4 | 
[V:1] F8 ||  
[V:2] c8 ||  
[V:3] F8 ||  
[V:1] G4G2G2 | 
[V:2] z8 | 
[V:3] G4B2B2 | 
[V:1] G4G2G2 | 
[V:2] z8 | 
[V:3] B4B2B2 | 
[V:1] G4G4 | 
[V:2] z8 | 
[V:3] B4B4 | 
[V:1] G2G2G4 | 
[V:2] z8 | 
[V:3] B2B2B4 | 
[V:1] B2A2G4 | 
[V:2] z8 | 
[V:3] d2c2B4 | 
[V:1] A4z4 | 
[V:2] z8 | 
[V:3] A4z4 | 
[V:1] G2G2G4 | 
[V:2] z8 | 
[V:3] B2B2B4 | 
[V:1] G4G2G2 | 
[V:2] z8 | 
[V:3] B4B2B2 | 
[V:1] G2G2G4 | 
[V:2] z8 | 
[V:3] B2B2B4 | 
[V:1] A4G4 | 
[V:2] z8 | 
[V:3] c4B4 | 
[V:1] F2F4E2 | 
[V:2] z8 | 
[V:3] A2F2G4 | 
[V:1] F8 ||  
[V:2] z8 ||  
[V:3] F8 ||  
[V:1] G2G2G4 | 
[V:2] d2d2d4 | 
[V:3] B2B2B4 | 
[V:1] G2G2G2G2- | 
[V:2] d2d2d2d2- | 
[V:3] B2B2B2B2- | 
[V:1] G2G2G4 | 
[V:2] d2d2d4 | 
[V:3] B2B2B4 | 
[V:1] F4z2G2- | 
[V:2] c4z2d2- | 
[V:3] A4G4 | 
[V:1] G2G2G2G2 | 
[V:2] d2d2d2d2 | 
[V:3] B4B2B2 | 
[V:1] G4A2B2- | 
[V:2] d4e2f2- | 
[V:3] B4c2d2- | 
[V:1] B2A4G2 | 
[V:2] f2e4d2 | 
[V:3] d2c2B4 | 
[V:1] A4z4 | 
[V:2] e4z4 | 
[V:3] A4z4 | 
[V:1] G2G2G4 | 
[V:2] d2d2d4 | 
[V:3] B2B2B4 | 
[V:1] G2G2G2G2 | 
[V:2] d2d2d2d2 | 
[V:3] B2B2B2B2 | 
[V:1] G4A4- | 
[V:2] d4e4- | 
[V:3] B4A4 | 
[V:1] A2G2F2G2- | 
[V:2] e2d2c2d2- | 
[V:3] c2B2A2B2- | 
[V:1] G2F4E2 | 
[V:2] d2c4=B2 | 
[V:3] B2A2G4 | 
[V:1] F8 ||  
[V:2] c8 ||  
[V:3] F8 ||  
[V:1] G2G2G4 | 
[V:2] z8 | 
[V:3] B2B2B4 | 
[V:1] G2G2G2G2 | 
[V:2] z8 | 
[V:3] B2B2B2B2 | 
[V:1] G4G2G2 | 
[V:2] z8 | 
[V:3] G4B2B2 | 
[V:1] G2G2G4 | 
[V:2] z8 | 
[V:3] B2B2B4 | 
[V:1] B4A2A2- | 
[V:2] z8 | 
[V:3] d4c2A2 | 
[V:1] A2G2A4 | 
[V:2] z8 | 
[V:3] B4A4 | 
[V:1] z4G4 | 
[V:2] z8 | 
[V:3] z4B4 | 
[V:1] G2G4G2 | 
[V:2] z8 | 
[V:3] B2B4B2 | 
[V:1] G2G2G4 | 
[V:2] z8 | 
[V:3] B2B2B4 | 
[V:1] G2G2G4 | 
[V:2] z8 | 
[V:3] B2B2B4 | 
[V:1] A4A2G2 | 
[V:2] z8 | 
[V:3] c4c2B2 | 
[V:1] F2G4F2- | 
[V:2] z8 | 
[V:3] A2B4A2 | 
[V:1] F2E2F4 ||  
[V:2] z8 ||  
[V:3] G4F4 ||  
[V:1] G4G2G2 | 
[V:2] d4d2d2 | 
[V:3] G4B2B2 | 
[V:1] G4G2G2 | 
[V:2] d4d2d2 | 
[V:3] B4B2B2 | 
[V:1] G4G2G2 | 
[V:2] d4d2d2 | 
[V:3] B4B2B2 | 
[V:1] G4F4 | 
[V:2] d4c4 | 
[V:3] B4A4 | 
[V:1] z2G2G2G2 | 
[V:2] z2d2d2d2 | 
[V:3] z2G2B2B2 | 
[V:1] G4G2G2 | 
[V:2] d4d2d2 | 
[V:3] B4B2B2 | 
[V:1] G2G2G4 | 
[V:2] d2d2d4 | 
[V:3] B2B2B4 | 
[V:1] A4B4 | 
[V:2] e4f4 | 
[V:3] c4d4 | 
[V:1] A2A4G2 | 
[V:2] e2e4d2 | 
[V:3] c2A2B4 | 
[V:1] A4z4 | 
[V:2] e4z4 | 
[V:3] A4z4 | 
[V:1] G2G2G2G2 | 
[V:2] d2d2d2d2 | 
[V:3] B2B2B2B2 | 
[V:1] G4G4 | 
[V:2] d4d4 | 
[V:3] B4G4 | 
[V:1] G4G2G2 | 
[V:2] d4d2d2 | 
[V:3] B4B2B2 | 
[V:1] G4A4 | 
[V:2] d4e4 | 
[V:3] B4c4 | 
[V:1] G2B4AG | 
[V:2] d2f4ed | 
[V:3] B2d3cB2 | 
[V:1] F2G4^F2 | 
[V:2] c2d4c2 | 
[V:3] A2G2A4 | 
[V:1] G4z4 |]  
[V:2] d4z4 |]  
[V:3] G4z4 |]  



